X:1702
L:1/8
M:2/2
K:Ador
 E A3 GABd | e a3 gedB | G2 GB ABGE | DEBG ABGF | E A3 GABd | e a3 gedB | G2 B/c/d gedB | 
 GABG A3 z :| |: e a3 bage | a2 ba gedB | d2 Bd ef ge | agab ge d2 | e a3 bage | a2 ba gedB | 
 d2 B/c/d gedB | GABG A3 z :|

